X:680
T:Cloon Reel, The
R:reel
H:Also played in C, #481
D:Dervish: Playing with Fire
Z:id:hn-reel-680
M:C|
K:D
|:e|fedB ~A3G|FADF ABde|fedB ~A3G|FADE FEEe|
fedB ~A3G|FADF ~A3B|d2fd adfd|B2AF FEE:|
|:e|d2fd adfg|a2ba afef|d2fd adfd|cAeA fAeA|
d2fd adfg|~a3b afea|bafd egfe|dBAF FEE:|
P:variations
|:e|fedB ~A3G|FADF ~A3e|fedB ~A3G|FADE FE~E2|
fedB ~A3G|FADF ~A3B|d2fd ~a3f|dBAF ~E3:|
|:e|d2fd adfa|a2bf afef|d2fd adfd|(3cBA eA fAeA|
d2fd adfa|afbf afeb|bafd edfe|dBAF ~E3:|

